src/components/content/Icon/functional/share.svg

<svg width="100" height="100" viewBox="0 0 100 100" fill="none" xmlns="http://www.w3.org/2000/svg">
<path d="M75.4261 24.622C75.3761 24.56 75.3201 24.5 75.2601 24.44C75.2021 24.378 75.1421 24.324 75.0781 24.274C74.4721 23.748 73.6841 23.592 72.9121 23.85C72.8921 23.856 72.8721 23.864 72.8521 23.872L24.8521 43.416C24.0281 43.708 23.4541 44.52 23.4541 45.402C23.4541 46.284 23.9241 47.042 24.6821 47.42C24.6881 47.424 24.6941 47.426 24.7001 47.43L43.6561 56.42C44.0381 56.602 44.4921 56.522 44.7921 56.224L73.3281 27.688L54.4221 74.12C54.4141 74.14 54.4061 74.16 54.4001 74.18C54.3901 74.208 54.3321 74.246 54.3001 74.246C54.2501 74.246 54.1301 74.234 54.0741 74.13L46.5381 58.242C46.3021 57.742 45.7041 57.53 45.2061 57.766C44.7081 58.002 44.4941 58.6 44.7301 59.098L52.2721 75C52.2721 75 52.2781 75.012 52.2821 75.018C52.6601 75.774 53.4341 76.246 54.3001 76.246C55.1661 76.246 55.9921 75.674 56.2861 74.848L75.8301 26.848C75.8381 26.828 75.8461 26.808 75.8521 26.788C76.1101 26.016 75.9541 25.228 75.4281 24.622H75.4261ZM43.8741 54.312L25.5681 45.63C25.4641 45.574 25.4521 45.454 25.4521 45.404C25.4521 45.37 25.4901 45.312 25.5181 45.304C25.5381 45.298 25.5581 45.29 25.5781 45.282L71.6741 26.512L43.8741 54.312Z" fill="#0B301A"/>
</svg>

<svg xmlns="http://www.w3.org/2000/svg" width="100" height="100" fill="none" viewBox="0 0 100 100"><path fill="#0b301a" d="M75.426 24.622a2 2 0 0 0-.166-.182 1.6 1.6 0 0 0-.182-.166 2.18 2.18 0 0 0-2.166-.424q-.03.01-.06.022l-48 19.544a2.13 2.13 0 0 0-1.398 1.986c0 .882.47 1.64 1.228 2.018l.018.01 18.956 8.99c.382.182.836.102 1.136-.196l28.536-28.536L54.422 74.12l-.022.06c-.01.028-.068.066-.1.066-.05 0-.17-.012-.226-.116l-7.536-15.888a1 1 0 1 0-1.808.856L52.272 75l.01.018a2.24 2.24 0 0 0 2.018 1.228c.866 0 1.692-.572 1.986-1.398l19.544-48q.013-.03.022-.06a2.18 2.18 0 0 0-.424-2.166zm-31.552 29.69L25.568 45.63c-.104-.056-.116-.176-.116-.226 0-.034.038-.092.066-.1q.03-.01.06-.022l46.096-18.77z"/></svg>
